X:1
T:Barcarolle - Tales of Hoffman
T:BARCAROLLE
T:OFFENBACH
T:Easily arranged by WILSON  MANHIRE
T:FROM “THE  TALES  OF  HOFFMAN”
T:Public Domain
T:Public Domain
C:Jacques Offenbach
Z:Public Domain
%%score { ( 1 3 ) | 2 }
L:1/8
Q:1/4=100
M:6/8
K:F
V:1 treble nm="Piano"
V:3 treble 
V:2 bass 
V:1
!p!"^Moderato" (A2 B) (B2 A) | (AGB) (B2 A) | (AGB) (B2 A) | A3- A2 z | (A2 B) (B2 A) | %5
 (AGB) (B2 A) | (AGB) (B2 A) | A3- A2 z |!<(! (c2 d) (d2 [ce]) | ([ce]2 [df]) ([df]2!<)! [ce]) | %10
!>(! ([ce]2 [Bd]) ([Bd]2 [Bc]) | [Ac]3- [Ac]2!>)! z |!<(! (c2 d) (d2 [ce]) | %13
 ([ce]2 [df]) ([df]2 [ce])!<)! |!>(! ([ce]2 [Bd]) ([Bd]2 [Bc]) | [Ac]3- [Ac]2!>)! z | %16
!<(! (c2 d) (d2 _e)!<)! | (f6- | [Af]cd _edc | [Bd]3- [Bd]2) d | (d2 e) (e2 f) |!f! (g6- | %22
!>(! [=Bg]de fed!>)! |[Q:3/4=28]"^.33" c3-!>(! c)=B_B!>)! |!p![Q:3/4=33]"^.33" (A2 B) (B2 A) | %25
 (AGB) (B2 A) | (AGB) (B2 A) | A3- A2 z | (A2 B) (B2 A) | (AGB) (B2 A) |!<(! (AGB) (B2 A)!<)! | %31
 !>![Ac]6 |!<(! (BGA Bcd)!<)! | (cFG AB=B) | (ccd efg) |!ff! ([ca]6 |!>(! a)(gf efd) | %37
 (c3- [Ac]2!>)! d) | [ce]3- [ce]2 (e | [Af]3)!p! (c f2) | ([ce] g2- g3) | %41
!<(! (f a2)!<)!!>(! (c f2)!>)! |!<(! ([ce] g2-!<)! g3) | f2 z [B,D]3 | [A,C]3 [G,B,]3 | %45
!>(! [A,F]6- | [A,F]2!>)! z z3 |] %47
V:2
 (F,A,C) (F,A,C) | (C,E,B,) (C,E,B,) | (C,E,B,) (C,E,B,) | (F,A,C DCA,) | (F,A,C) (F,A,C) | %5
 (C,E,B,) (C,E,B,) | (C,E,B,) (C,E,B,) | (F,A,C) (F,A,C) | (F,A,C) (F,A,C) | (C,E,G, CG,E,) | %10
 (C,E,G, CG,E,) | (F,A,C DCA,) | (F,A,C) (F,A,C) | (C,E,G, CG,E,) | (C,E,G, CG,E,) | %15
 (F,A,C) (F,A,C) | (F,A,C FCA,) | (F,A,C FCA,) | (F,A,C FCA,) | (B,DF) (B,DF) | %20
"^cresc." (G,=B,D FDB,) | (G,=B,D FDB,) | (G,=B,D) (G,A,B,) |"^rall." (CG,E, C,2) z | %24
 (F,"^a tempo"A,C) (F,A,C) | (C,E,B,) (C,E,B,) | (C,E,B,) (C,E,B,) | (F,A,C DCA,) | %28
 (F,A,C) (F,A,C) | (C,E,B,) (C,E,B,) | (C,E,B,) (C,E,B,) | (^F,A,C _ECA,) | (G,B,D G2) z | %33
 (C,3 [F,A,]2) z |"^cresc. molto" (C,3 [G,B,]2) z | (^F,A,B, CD_E) | ([B,D]3 [G,B,]3) | %37
 (A,G,F, E,F,D,) | (C,2 B,) (A,2 G,) | (F,A,C) (F,A,C) | (C,E,G, B,G,E,) | (C,F,A,) (C,F,A,) | %42
 (C,E,G, B,G,E,) | [F,A,]2 z!p!"^rall." F,3- | F,3 z3 | (F,3 C,3 | F,,2) z z3 |] %47
V:3
 x6 | x6 | x6 | x6 | x6 | x6 | x6 | x6 | x6 | x6 | x6 | x6 | x6 | x6 | x6 | x6 | x6 | %17
 (A2 B) (B2 c) | x6 | x6 | x6 | (=B2 c) (c2 d) | x6 | x6 | x6 | x6 | x6 | x6 | x6 | x6 | x6 | x6 | %32
 x6 | c3 x x2 | x6 | x6 | x6 | x6 | x6 | x6 | x6 | x6 | x6 | x6 | x6 | x6 | x6 |] %47

